; generated by Slic3r 1.2.9 on 2017-07-25 at 12:41:21

; external perimeters extrusion width = 0.40mm
; perimeters extrusion width = 0.67mm
; infill extrusion width = 0.67mm
; solid infill extrusion width = 0.67mm
; top infill extrusion width = 0.67mm

M107
M104 S220 ; set temperature
G28 ; home all axes

;These Are the mixing ratios of the 5 extruders... This is basically how it works... 
	
	;T0 = The virtual extruder or Color
	;S0 = Physical Extruder 1 = Black Filament
	;S1 = Physical Extruder 2 = White Filament
	;S2 = Physical Extruder 3 = Cyan Filament
	;S3 = Physical Extruder 4 = Magenta Filament
	;S4 = Physical Extruder 5 = Yellow Filament


; T0 = Black
M163 S0 P0
M163 S1 P0
M163 S2 P1
M163 S3 P0
M163 S4 P0
M164 S0

; T1
M163 S0 P0
M163 S1 P0
M163 S2 P5
M163 S3 P1
M163 S4 P0
M164 S1

; T2
M163 S0 P0
M163 S1 P0
M163 S2 P1
M163 S3 P1
M163 S4 P0
M164 S2

; T3
M163 S0 P0
M163 S1 P0
M163 S2 P1
M163 S3 P3
M163 S4 P0
M164 S3

; T4
M163 S0 P0
M163 S1 P0
M163 S2 P1
M163 S3 P5
M163 S4 P0
M164 S4

; T5
M163 S0 P0
M163 S1 P0
M163 S2 P0
M163 S3 P1
M163 S4 P0
M164 S5

; T6
M163 S0 P0
M163 S1 P0
M163 S2 P0
M163 S3 P5
M163 S4 P1
M164 S6

; T7
M163 S0 P0
M163 S1 P0
M163 S2 P0
M163 S3 P3
M163 S4 P1
M164 S7

; T8
M163 S0 P0
M163 S1 P0
M163 S2 P0
M163 S3 P1
M163 S4 P1
M164 S8

; T9
M163 S0 P0
M163 S1 P0
M163 S2 P0
M163 S3 P1
M163 S4 P3
M164 S9

; T10
M163 S0 P0
M163 S1 P0
M163 S2 P0
M163 S3 P0
M163 S4 P1
M164 S10

; T11
M163 S0 P0
M163 S1 P0
M163 S2 P1
M163 S3 P0
M163 S4 P5
M164 S11

; T12
M163 S0 P0
M163 S1 P0
M163 S2 P1
M163 S3 P0
M163 S4 P3
M164 S12

; T13
M163 S0 P0
M163 S1 P0
M163 S2 P1
M163 S3 P0
M163 S4 P1
M164 S13

; T14
M163 S0 P0
M163 S1 P0
M163 S2 P3
M163 S3 P0
M163 S4 P1
M164 S14

; T15
M163 S0 P0
M163 S1 P0
M163 S2 P5
M163 S3 P0
M163 S4 P1
M164 S15
M109 S220 ; wait for temperature to be reached
G21 ; set units to millimeters
G90 ; use absolute coordinates
M82 ; use absolute distances for extrusion
G92 E0
;
;Layer Change
;
G1 Z0.300 F7200.000
G1 E-5.00000 F480.00000
G92 E0
G1 X28.514 Y-1.470 F7200.000
G1 E5.00000 F480.00000
G1 X28.567 Y-0.447 E5.06501 F2400.000
G1 X28.567 Y0.447 E5.12172
G1 X28.461 Y2.494 E5.25184
G1 X28.369 Y3.383 E5.30854
G1 X28.054 Y5.409 E5.43869
G1 X27.871 Y6.282 E5.49526
G1 X27.349 Y8.266 E5.62548
G1 X27.077 Y9.117 E5.68217
G1 X26.354 Y11.036 E5.81231
G1 X25.996 Y11.854 E5.86901
G1 X25.080 Y13.688 E5.99913
G1 X24.639 Y14.466 E6.05583
G1 X23.538 Y16.197 E6.18606
G1 X23.022 Y16.924 E6.24263
G1 X21.748 Y18.533 E6.37288
G1 X21.159 Y19.203 E6.42947
G1 X19.728 Y20.671 E6.55960
G1 X19.073 Y21.278 E6.61630
G1 X17.498 Y22.591 E6.74642
G1 X16.784 Y23.128 E6.80312
G1 X15.083 Y24.272 E6.93324
G1 X14.317 Y24.732 E6.98995
G1 X12.507 Y25.696 E7.12008
G1 X11.698 Y26.074 E7.17677
G1 X9.798 Y26.847 E7.30689
G1 X8.956 Y27.140 E7.36351
G1 X6.985 Y27.714 E7.49376
G1 X6.116 Y27.918 E7.55042
G1 X4.099 Y28.286 E7.68053
G1 X3.213 Y28.401 E7.73724
G1 X1.169 Y28.559 E7.86736
G1 X0.276 Y28.582 E7.92406
G1 X-1.774 Y28.529 E8.05418
G1 X-2.664 Y28.460 E8.11088
G1 X-4.701 Y28.197 E8.24120
G1 X-5.577 Y28.037 E8.29771
G1 X-7.572 Y27.566 E8.42784
G1 X-8.430 Y27.316 E8.48453
G1 X-10.367 Y26.643 E8.61467
G1 X-11.192 Y26.307 E8.67120
G1 X-13.052 Y25.436 E8.80154
G1 X-13.838 Y25.018 E8.85807
G1 X-15.597 Y23.962 E8.98830
G1 X-16.339 Y23.463 E9.04500
G1 X-17.978 Y22.232 E9.17512
G1 X-18.664 Y21.660 E9.23179
G1 X-20.169 Y20.267 E9.36194
G1 X-20.809 Y19.608 E9.42026
G1 X-22.146 Y18.087 E9.54876
G1 X-22.701 Y17.387 E9.60547
G1 X-23.889 Y15.716 E9.73559
G1 X-24.368 Y14.962 E9.79228
G1 X-25.378 Y13.178 E9.92241
G1 X-25.777 Y12.378 E9.97911
G1 X-26.599 Y10.499 E10.10925
G1 X-26.913 Y9.665 E10.16582
G1 X-27.537 Y7.710 E10.29607
G1 X-27.764 Y6.848 E10.35267
G1 X-28.184 Y4.840 E10.48288
G1 X-28.322 Y3.957 E10.53958
G1 X-28.532 Y1.917 E10.66973
G1 X-28.578 Y1.025 E10.72641
G1 X-28.578 Y-1.025 E10.85652
G1 X-28.532 Y-1.917 E10.91320
G1 X-28.322 Y-3.957 E11.04335
G1 X-28.184 Y-4.840 E11.10005
G1 X-27.765 Y-6.846 E11.23017
G1 X-27.537 Y-7.710 E11.28687
G1 X-26.913 Y-9.666 E11.41715
G1 X-26.598 Y-10.500 E11.47370
G1 X-25.792 Y-12.346 E11.60157
G1 X-25.378 Y-13.178 E11.66052
G1 X-24.368 Y-14.962 E11.79064
G1 X-23.889 Y-15.716 E11.84733
G1 X-22.701 Y-17.387 E11.97746
G1 X-22.146 Y-18.087 E12.03416
G1 X-20.793 Y-19.627 E12.16428
G1 X-20.169 Y-20.267 E12.22097
G1 X-18.664 Y-21.660 E12.35113
G1 X-17.979 Y-22.232 E12.40779
G1 X-16.339 Y-23.463 E12.53793
G1 X-15.597 Y-23.962 E12.59463
G1 X-13.840 Y-25.017 E12.72475
G1 X-13.051 Y-25.437 E12.78144
G1 X-11.194 Y-26.306 E12.91157
G1 X-10.335 Y-26.653 E12.97036
G1 X-8.429 Y-27.316 E13.09843
G1 X-7.572 Y-27.566 E13.15510
G1 X-5.577 Y-28.037 E13.28522
G1 X-4.698 Y-28.197 E13.34192
G1 X-2.664 Y-28.460 E13.47204
G1 X-1.775 Y-28.529 E13.52866
G1 X0.276 Y-28.582 E13.65886
G1 X1.169 Y-28.559 E13.71557
G1 X3.214 Y-28.401 E13.84573 F2400.000
G1 X4.099 Y-28.286 E13.90234
G1 X6.117 Y-27.918 E14.03252
G1 X6.985 Y-27.713 E14.08918
G1 X8.955 Y-27.140 E14.21935
G1 X9.798 Y-26.847 E14.27603
G1 X11.698 Y-26.074 E14.40618
G1 X12.507 Y-25.696 E14.46284
G1 X14.318 Y-24.731 E14.59305
G1 X15.082 Y-24.272 E14.64968
G1 X16.784 Y-23.128 E14.77980
G1 X17.498 Y-22.591 E14.83650
G1 X19.073 Y-21.278 E14.96663
G1 X19.728 Y-20.671 E15.02332
G1 X21.159 Y-19.202 E15.15347
G1 X21.747 Y-18.534 E15.20996
G1 X23.021 Y-16.924 E15.34028
G1 X23.539 Y-16.197 E15.39691
G1 X24.640 Y-14.466 E15.52710
G1 X25.080 Y-13.688 E15.58380
G1 X25.996 Y-11.854 E15.71392
G1 X26.354 Y-11.036 E15.77062
G1 X27.077 Y-9.117 E15.90074
G1 X27.349 Y-8.266 E15.95744
G1 X27.871 Y-6.282 E16.08764
G1 X28.054 Y-5.409 E16.14424
G1 X28.369 Y-3.383 E16.27438
G1 X28.461 Y-2.494 E16.33109
G1 X28.511 Y-1.530 E16.39239
G1 X27.979 Y-1.442 F7200.000
G1 X28.032 Y-0.419 E16.45740 F2400.000
G1 X28.032 Y0.419 E16.51060
G1 X27.926 Y2.467 E16.64072
G1 X27.840 Y3.301 E16.69393
G1 X27.525 Y5.327 E16.82407
G1 X27.353 Y6.145 E16.87715
G1 X26.831 Y8.130 E17.00737
G1 X26.576 Y8.928 E17.06055
G1 X25.853 Y10.847 E17.19069
G1 X25.517 Y11.615 E17.24390
G1 X24.600 Y13.449 E17.37401
G1 X24.188 Y14.178 E17.42722
G1 X23.086 Y15.910 E17.55744
G1 X22.602 Y16.591 E17.61052
G1 X21.328 Y18.200 E17.74076
G1 X20.776 Y18.829 E17.79386
G1 X19.345 Y20.297 E17.92398
G1 X18.729 Y20.867 E17.97719
G1 X17.155 Y22.180 E18.10731
G1 X16.485 Y22.683 E18.16051
G1 X14.784 Y23.828 E18.29063
G1 X14.065 Y24.259 E18.34384
G1 X12.255 Y25.223 E18.47396
G1 X11.496 Y25.578 E18.52716
G1 X9.597 Y26.351 E18.65728
G1 X8.806 Y26.626 E18.71040
G1 X6.836 Y27.199 E18.84065
G1 X6.020 Y27.392 E18.89380
G1 X4.003 Y27.759 E19.02392
G1 X3.172 Y27.867 E19.07713
G1 X1.128 Y28.025 E19.20725
G1 X0.290 Y28.047 E19.26045
G1 X-1.760 Y27.994 E19.39057
G1 X-2.595 Y27.929 E19.44377
G1 X-4.632 Y27.665 E19.57408
G1 X-5.454 Y27.516 E19.62710
G1 X-7.449 Y27.045 E19.75723
G1 X-8.254 Y26.810 E19.81042
G1 X-10.191 Y26.137 E19.94056
G1 X-10.965 Y25.822 E19.99359
G1 X-12.825 Y24.951 E20.12393
G1 X-13.562 Y24.559 E20.17696
G1 X-15.321 Y23.502 E20.30718
G1 X-16.017 Y23.034 E20.36039
G1 X-17.657 Y21.804 E20.49051
G1 X-18.300 Y21.267 E20.54368
G1 X-19.805 Y19.874 E20.67383
G1 X-20.407 Y19.255 E20.72865
G1 X-21.744 Y17.734 E20.85715
G1 X-22.264 Y17.076 E20.91036
G1 X-23.452 Y15.405 E21.04048
G1 X-23.902 Y14.698 E21.09367
G1 X-24.912 Y12.914 E21.22380
G1 X-25.287 Y12.164 E21.27700
G1 X-26.108 Y10.285 E21.40714
G1 X-26.403 Y9.502 E21.46022
G1 X-27.027 Y7.547 E21.59046
G1 X-27.240 Y6.738 E21.64356
G1 X-27.660 Y4.730 E21.77377
G1 X-27.789 Y3.902 E21.82697
G1 X-28.000 Y1.862 E21.95711
G1 X-28.043 Y1.025 E22.01030
G1 X-28.043 Y-1.025 E22.14041
G1 X-28.000 Y-1.862 E22.19359
G1 X-27.789 Y-3.902 E22.32374
G1 X-27.660 Y-4.730 E22.37694
G1 X-27.240 Y-6.737 E22.50706
G1 X-27.027 Y-7.548 E22.56026
G1 X-26.403 Y-9.503 E22.69053
G1 X-26.108 Y-10.285 E22.74359
G1 X-25.301 Y-12.131 E22.87144
G1 X-24.912 Y-12.914 E22.92691
G1 X-23.902 Y-14.698 E23.05703
G1 X-23.449 Y-15.410 E23.11057
G1 X-22.264 Y-17.076 E23.24035
G1 X-21.744 Y-17.734 E23.29355
G1 X-20.390 Y-19.274 E23.42367
G1 X-19.805 Y-19.874 E23.47687
G1 X-18.300 Y-21.267 E23.60702
G1 X-17.657 Y-21.804 E23.66018
G1 X-16.017 Y-23.034 E23.79032
G1 X-15.321 Y-23.502 E23.84352
G1 X-13.564 Y-24.558 E23.97364
G1 X-12.824 Y-24.952 E24.02683
G1 X-10.967 Y-25.821 E24.15696
G1 X-10.159 Y-26.148 E24.21226
G1 X-8.253 Y-26.811 E24.34032
G1 X-7.449 Y-27.045 E24.39349
G1 X-5.454 Y-27.516 E24.52361
G1 X-4.629 Y-27.666 E24.57681
G1 X-2.596 Y-27.929 E24.70693
G1 X-1.761 Y-27.994 E24.76006
G1 X0.290 Y-28.047 E24.89025
G1 X1.128 Y-28.025 E24.94346
G1 X3.173 Y-27.867 E25.07362 F2400.000
G1 X4.003 Y-27.759 E25.12673
G1 X6.021 Y-27.392 E25.25691
G1 X6.836 Y-27.199 E25.31007
G1 X8.805 Y-26.626 E25.44024
G1 X9.597 Y-26.351 E25.49342
G1 X11.496 Y-25.578 E25.62357
G1 X12.255 Y-25.223 E25.67673
G1 X14.066 Y-24.259 E25.80694
G1 X14.783 Y-23.828 E25.86007
G1 X16.485 Y-22.683 E25.99019
G1 X17.155 Y-22.180 E26.04340
G1 X18.730 Y-20.867 E26.17352
G1 X19.345 Y-20.297 E26.22671
G1 X20.776 Y-18.829 E26.35686
G1 X21.327 Y-18.201 E26.40986
G1 X22.602 Y-16.591 E26.54017
G1 X23.087 Y-15.909 E26.59331
G1 X24.188 Y-14.178 E26.72349
G1 X24.600 Y-13.449 E26.77669
G1 X25.517 Y-11.615 E26.90681
G1 X25.853 Y-10.847 E26.96001
G1 X26.576 Y-8.928 E27.09014
G1 X26.831 Y-8.130 E27.14334
G1 X27.353 Y-6.146 E27.27353
G1 X27.524 Y-5.327 E27.32663
G1 X27.840 Y-3.301 E27.45678
G1 X27.926 Y-2.467 E27.50998
G1 X27.976 Y-1.502 E27.57128
G1 X27.444 Y-1.415 F7200.000
G1 X27.497 Y-0.392 E27.63629 F2400.000
G1 X27.497 Y0.392 E27.68600
G1 X27.391 Y2.439 E27.81612
G1 X27.311 Y3.218 E27.86582
G1 X26.995 Y5.244 E27.99596
G1 X26.836 Y6.009 E28.04555
G1 X26.313 Y7.993 E28.17576
G1 X26.075 Y8.739 E28.22545
G1 X25.352 Y10.658 E28.35559
G1 X25.038 Y11.375 E28.40529
G1 X24.121 Y13.209 E28.53541
G1 X23.736 Y13.891 E28.58511
G1 X22.634 Y15.622 E28.71533
G1 X22.182 Y16.259 E28.76491
G1 X20.908 Y17.868 E28.89515
G1 X20.392 Y18.455 E28.94475
G1 X18.961 Y19.923 E29.07488
G1 X18.386 Y20.455 E29.12458
G1 X16.812 Y21.769 E29.25470
G1 X16.186 Y22.239 E29.30441
G1 X14.485 Y23.383 E29.43452
G1 X13.813 Y23.786 E29.48423
G1 X12.003 Y24.750 E29.61436
G1 X11.294 Y25.082 E29.66405
G1 X9.395 Y25.854 E29.79417
G1 X8.656 Y26.111 E29.84380
G1 X6.686 Y26.685 E29.97404
G1 X5.924 Y26.865 E30.02370
G1 X3.907 Y27.232 E30.15382
G1 X3.131 Y27.333 E30.20352
G1 X1.087 Y27.491 E30.33364
G1 X0.304 Y27.511 E30.38335
G1 X-1.746 Y27.458 E30.51346
G1 X-2.527 Y27.398 E30.56316
G1 X-4.563 Y27.134 E30.69346
G1 X-5.331 Y26.994 E30.74299
G1 X-7.326 Y26.523 E30.87312
G1 X-8.078 Y26.304 E30.92282
G1 X-10.015 Y25.631 E31.05295
G1 X-10.738 Y25.337 E31.10250
G1 X-12.598 Y24.466 E31.23282
G1 X-13.287 Y24.099 E31.28237
G1 X-15.046 Y23.043 E31.41258
G1 X-15.696 Y22.606 E31.46229
G1 X-17.335 Y21.375 E31.59240
G1 X-17.936 Y20.874 E31.64208
G1 X-19.441 Y19.481 E31.77223
G1 X-20.005 Y18.901 E31.82354
G1 X-21.342 Y17.380 E31.95205
G1 X-21.828 Y16.766 E32.00175
G1 X-23.016 Y15.095 E32.13187
G1 X-23.436 Y14.434 E32.18157
G1 X-24.446 Y12.650 E32.31170
G1 X-24.796 Y11.949 E32.36140
G1 X-25.617 Y10.070 E32.49154
G1 X-25.893 Y9.339 E32.54113
G1 X-26.517 Y7.385 E32.67135
G1 X-26.716 Y6.629 E32.72097
G1 X-27.135 Y4.620 E32.85117
G1 X-27.256 Y3.847 E32.90087
G1 X-27.467 Y1.807 E33.03101
G1 X-27.507 Y1.025 E33.08069
G1 X-27.507 Y-1.025 E33.21081
G1 X-27.467 Y-1.807 E33.26049
G1 X-27.256 Y-3.847 E33.39063
G1 X-27.135 Y-4.620 E33.44034
G1 X-26.716 Y-6.627 E33.57046
G1 X-26.517 Y-7.385 E33.62016
G1 X-25.892 Y-9.340 E33.75042
G1 X-25.617 Y-10.071 E33.79999
G1 X-24.810 Y-11.917 E33.92786
G1 X-24.446 Y-12.650 E33.97981
G1 X-23.436 Y-14.434 E34.10993
G1 X-23.016 Y-15.095 E34.15962
G1 X-21.828 Y-16.766 E34.28975
G1 X-21.342 Y-17.380 E34.33945
G1 X-19.988 Y-18.920 E34.46957
G1 X-19.442 Y-19.481 E34.51927
G1 X-17.936 Y-20.874 E34.64942
G1 X-17.336 Y-21.375 E34.69908
G1 X-15.696 Y-22.606 E34.82922
G1 X-15.046 Y-23.043 E34.87892
G1 X-13.288 Y-24.099 E35.00904
G1 X-12.597 Y-24.467 E35.05873
G1 X-10.740 Y-25.336 E35.18886
G1 X-9.983 Y-25.642 E35.24066
G1 X-8.077 Y-26.305 E35.36872
G1 X-7.326 Y-26.523 E35.41839
G1 X-5.331 Y-26.994 E35.54851
G1 X-4.560 Y-27.135 E35.59821
G1 X-2.527 Y-27.398 E35.72833
G1 X-1.747 Y-27.458 E35.77796
G1 X0.304 Y-27.511 E35.90816
G1 X1.087 Y-27.491 E35.95786
G1 X3.131 Y-27.333 E36.08801 F2400.000
G1 X3.907 Y-27.232 E36.13764
G1 X5.925 Y-26.865 E36.26781
G1 X6.686 Y-26.685 E36.31747
G1 X8.655 Y-26.112 E36.44764
G1 X9.395 Y-25.854 E36.49733
G1 X11.294 Y-25.082 E36.62747
G1 X12.003 Y-24.750 E36.67714
G1 X13.814 Y-23.786 E36.80733
G1 X14.484 Y-23.383 E36.85697
G1 X16.186 Y-22.239 E36.98709
G1 X16.812 Y-21.769 E37.03680
G1 X18.386 Y-20.455 E37.16693
G1 X18.961 Y-19.923 E37.21662
G1 X20.392 Y-18.455 E37.34676
G1 X20.907 Y-17.869 E37.39627
G1 X22.182 Y-16.259 E37.52657
G1 X22.635 Y-15.622 E37.57622
G1 X23.736 Y-13.891 E37.70639
G1 X24.121 Y-13.209 E37.75609
G1 X25.038 Y-11.375 E37.88621
G1 X25.352 Y-10.658 E37.93592
G1 X26.075 Y-8.739 E38.06604
G1 X26.313 Y-7.993 E38.11574
G1 X26.835 Y-6.010 E38.24593
G1 X26.995 Y-5.244 E38.29554
G1 X27.311 Y-3.218 E38.42568
G1 X27.391 Y-2.439 E38.47539
G1 X27.441 Y-1.475 E38.53668
G1 X26.909 Y-1.387 F7200.000
G1 X26.962 Y-0.364 E38.60170 F2400.000
G1 X26.962 Y0.364 E38.64790
G1 X26.856 Y2.412 E38.77802
G1 X26.782 Y3.136 E38.82423
G1 X26.466 Y5.162 E38.95436
G1 X26.318 Y5.873 E39.00046
G1 X25.795 Y7.857 E39.13067
G1 X25.574 Y8.550 E39.17686
G1 X24.850 Y10.469 E39.30699
G1 X24.559 Y11.136 E39.35319
G1 X23.642 Y12.970 E39.48331
G1 X23.284 Y13.603 E39.52952
G1 X22.183 Y15.335 E39.65973
G1 X21.762 Y15.926 E39.70582
G1 X20.488 Y17.535 E39.83605
G1 X20.008 Y18.081 E39.88216
G1 X18.577 Y19.549 E40.01228
G1 X18.043 Y20.044 E40.05849
G1 X16.469 Y21.357 E40.18861
G1 X15.887 Y21.794 E40.23481
G1 X14.185 Y22.939 E40.36493
G1 X13.561 Y23.314 E40.41114
G1 X11.751 Y24.277 E40.54126
G1 X11.092 Y24.586 E40.58746
G1 X9.193 Y25.358 E40.71758
G1 X8.507 Y25.597 E40.76371
G1 X6.536 Y26.171 E40.89394
G1 X5.828 Y26.338 E40.94010
G1 X3.811 Y26.705 E41.07022
G1 X3.089 Y26.799 E41.11643
G1 X1.045 Y26.957 E41.24655
G1 X0.317 Y26.976 E41.29275
G1 X-1.732 Y26.923 E41.42287
G1 X-2.458 Y26.867 E41.46907
G1 X-4.494 Y26.603 E41.59936
G1 X-5.208 Y26.473 E41.64540
G1 X-7.203 Y26.002 E41.77553
G1 X-7.902 Y25.799 E41.82172
G1 X-9.839 Y25.125 E41.95186
G1 X-10.511 Y24.852 E41.99792
G1 X-12.370 Y23.981 E42.12822
G1 X-13.011 Y23.640 E42.17428
G1 X-14.770 Y22.584 E42.30449
G1 X-15.374 Y22.178 E42.35069
G1 X-17.014 Y20.947 E42.48081
G1 X-17.573 Y20.481 E42.52699
G1 X-19.078 Y19.088 E42.65714
G1 X-19.603 Y18.547 E42.70495
G1 X-20.939 Y17.027 E42.83346
G1 X-21.391 Y16.456 E42.87966
G1 X-22.579 Y14.785 E43.00978
G1 X-22.970 Y14.170 E43.05598
G1 X-23.980 Y12.386 E43.18610
G1 X-24.305 Y11.735 E43.23231
G1 X-25.126 Y9.856 E43.36244
G1 X-25.382 Y9.176 E43.40854
G1 X-26.006 Y7.222 E43.53876
G1 X-26.192 Y6.519 E43.58488
G1 X-26.611 Y4.511 E43.71507
G1 X-26.723 Y3.792 E43.76128
G1 X-26.934 Y1.752 E43.89142
G1 X-26.971 Y1.025 E43.93760
G1 X-26.971 Y-1.025 E44.06772
G1 X-26.934 Y-1.752 E44.11390
G1 X-26.723 Y-3.792 E44.24404
G1 X-26.611 Y-4.511 E44.29025
G1 X-26.192 Y-6.518 E44.42037
G1 X-26.006 Y-7.222 E44.46657
G1 X-25.382 Y-9.177 E44.59682
G1 X-25.126 Y-9.856 E44.64289
G1 X-24.319 Y-11.702 E44.77076
G1 X-23.980 Y-12.386 E44.81922
G1 X-22.970 Y-14.170 E44.94933
G1 X-22.579 Y-14.785 E44.99553
G1 X-21.391 Y-16.456 E45.12566
G1 X-20.939 Y-17.027 E45.17186
G1 X-19.586 Y-18.567 E45.30198
G1 X-19.078 Y-19.088 E45.34818
G1 X-17.573 Y-20.481 E45.47833
