; generated by Slic3r 1.34.1-prusa3d-win64 on 2017-07-23 at 20:52:48

; external perimeters extrusion width = 0.40mm
; perimeters extrusion width = 0.67mm
; infill extrusion width = 0.67mm
; solid infill extrusion width = 0.67mm
; top infill extrusion width = 0.67mm

M107
M190 S60 ; set bed temperature and wait for it to be reached
M104 S215 ; set temperature
G28 ; home all axes

;These Are the mixing ratios of the 5 extruders... This is basically how it works... 
	
	;T0 = The virtual extruder or Color
	;S0 = Physical Extruder 1 = Black Filament
	;S1 = Physical Extruder 2 = White Filament
	;S2 = Physical Extruder 3 = Cyan Filament
	;S3 = Physical Extruder 4 = Magenta Filament
	;S4 = Physical Extruder 5 = Yellow Filament


; T0 = Black
M163 S0 P0
M163 S1 P0
M163 S2 P1
M163 S3 P0
M163 S4 P0
M164 S0

; T1
M163 S0 P0
M163 S1 P1
M163 S2 P0
M163 S3 P0
M163 S4 P0
M164 S1

; T2
M163 S0 P0
M163 S1 P0
M163 S2 P1
M163 S3 P1
M163 S4 P0
M164 S2

; T3
M163 S0 P0
M163 S1 P0
M163 S2 P1
M163 S3 P3
M163 S4 P0
M164 S3

; T4
M163 S0 P0
M163 S1 P0
M163 S2 P1
M163 S3 P5
M163 S4 P0
M164 S4

; T5
M163 S0 P0
M163 S1 P0
M163 S2 P0
M163 S3 P1
M163 S4 P0
M164 S5

; T6
M163 S0 P0
M163 S1 P0
M163 S2 P0
M163 S3 P5
M163 S4 P1
M164 S6

; T7
M163 S0 P0
M163 S1 P0
M163 S2 P0
M163 S3 P3
M163 S4 P1
M164 S7

; T8
M163 S0 P0
M163 S1 P0
M163 S2 P0
M163 S3 P1
M163 S4 P1
M164 S8

; T9
M163 S0 P0
M163 S1 P0
M163 S2 P0
M163 S3 P1
M163 S4 P3
M164 S9

; T10
M163 S0 P0
M163 S1 P0
M163 S2 P0
M163 S3 P0
M163 S4 P1
M164 S10

; T11
M163 S0 P0
M163 S1 P0
M163 S2 P1
M163 S3 P0
M163 S4 P5
M164 S11

; T12
M163 S0 P0
M163 S1 P0
M163 S2 P1
M163 S3 P0
M163 S4 P3
M164 S12

; T13
M163 S0 P0
M163 S1 P0
M163 S2 P1
M163 S3 P0
M163 S4 P1
M164 S13

; T14
M163 S0 P0
M163 S1 P0
M163 S2 P3
M163 S3 P0
M163 S4 P1
M164 S14

; T15
M163 S0 P0
M163 S1 P0
M163 S2 P5
M163 S3 P0
M163 S4 P1
M164 S15
M109 S215 ; set temperature and wait for it to be reached
G21 ; set units to millimeters
G90 ; use absolute coordinates
M82 ; use absolute distances for extrusion
G92 E0
;
;Layer Change
;
G1 Z0.300 F15000.000
G1 E-5.00000 F1500.00000
G92 E0
G1 X13.629 Y13.629 F15000.000
G1 E5.00000 F1500.00000
G1 F2400
G1 X-13.629 Y13.629 E6.63886
G1 X-13.629 Y-13.629 E8.27771
G1 X13.629 Y-13.629 E9.91657
G1 X13.629 Y13.569 E11.55181
G1 X14.164 Y14.164 F15000.000
G1 F2400
G1 X-14.164 Y14.164 E13.25508
G1 X-14.164 Y-14.164 E14.95834
G1 X14.164 Y-14.164 E16.66160
G1 X14.164 Y14.104 E18.36126
G1 X14.700 Y14.700 F15000.000
G1 F2400
G1 X-14.700 Y14.700 E20.12893
G1 X-14.700 Y-14.700 E21.89660
G1 X14.700 Y-14.700 E23.66427
G1 X14.700 Y14.640 E25.42833
G1 X14.314 Y14.596 F15000.000
G1 F12000
G1 X-14.700 Y14.700 E21.93708
G1 F12000
G1 X-14.700 Y4.100 E20.67833
G1 E20.42833 F1500.00000
G92 E0
G1 X13.415 Y-12.316 F15000.000
G1 E5.00000 F1500.00000
G1 F2400
G1 X12.557 Y-13.174 E5.07394
G1 X11.789 Y-13.174 E5.12077
G1 X13.174 Y-11.789 E5.24015
G1 X13.174 Y-11.021 E5.28698
G1 X11.021 Y-13.174 E5.47258
G1 X10.253 Y-13.174 E5.51941
G1 X13.174 Y-10.253 E5.77123
G1 X13.174 Y-9.485 E5.81806
G1 X9.485 Y-13.174 E6.13611
G1 X8.717 Y-13.174 E6.18293
G1 X13.174 Y-8.717 E6.56721
G1 X13.174 Y-7.948 E6.61403
G1 X7.948 Y-13.174 E7.06453
G1 X7.180 Y-13.174 E7.11135
G1 X13.174 Y-7.180 E7.62807
G1 X13.174 Y-6.412 E7.67490
G1 X6.412 Y-13.174 E8.25783
G1 X5.644 Y-13.174 E8.30466
G1 X13.174 Y-5.644 E8.95382
G1 X13.174 Y-4.876 E9.00065
G1 X4.876 Y-13.174 E9.71603
G1 X4.108 Y-13.174 E9.76286
G1 X13.174 Y-4.108 E10.54446
G1 X13.174 Y-3.340 E10.59129
G1 X3.340 Y-13.174 E11.43912
G1 X2.572 Y-13.174 E11.48595
G1 X13.174 Y-2.572 E12.40000
G1 X13.174 Y-1.804 E12.44682
G1 X1.804 Y-13.174 E13.42710
G1 X1.036 Y-13.174 E13.47392
G1 X13.174 Y-1.036 E14.52042
G1 X13.174 Y-0.268 E14.56724
G1 X0.268 Y-13.174 E15.67996
G1 X-0.500 Y-13.174 E15.72679
G1 X13.174 Y0.500 E16.90573
G1 X13.174 Y1.268 E16.95256
G1 X-1.268 Y-13.174 E18.19772
G1 X-2.036 Y-13.174 E18.24454
G1 X13.174 Y2.036 E19.55593
G1 X13.174 Y2.805 E19.60276
G1 X-2.805 Y-13.174 E20.98036
G1 X-3.573 Y-13.174 E21.02719
G1 X13.174 Y3.573 E22.47102
G1 X13.174 Y4.341 E22.51785
G1 X-4.341 Y-13.174 E24.02790
G1 X-5.109 Y-13.174 E24.07473
G1 X13.174 Y5.109 E25.65100
G1 X13.174 Y5.877 E25.69783
G1 X-5.877 Y-13.174 E27.34032
G1 X-6.645 Y-13.174 E27.38715
G1 X13.174 Y6.645 E29.09587
G1 X13.174 Y7.413 E29.14270
G1 X-7.413 Y-13.174 E30.91764
G1 X-8.181 Y-13.174 E30.96447
G1 X13.174 Y8.181 E32.80563
G1 X13.174 Y8.949 E32.85246
G1 X-8.949 Y-13.174 E34.75984
G1 X-9.717 Y-13.174 E34.80667
G1 X13.174 Y9.717 E36.78028
G1 X13.174 Y10.485 E36.82711
G1 X-10.485 Y-13.174 E38.86694
G1 X-11.253 Y-13.174 E38.91376
G1 X13.174 Y11.253 E41.01982
G1 X13.174 Y12.021 E41.06664
G1 X-12.021 Y-13.174 E43.23892
G1 X-12.790 Y-13.174 E43.28575
G1 X13.174 Y12.790 E45.52425
G1 X13.174 Y13.174 E45.54766
G1 X12.789 Y13.174 E45.57107
G1 X-13.174 Y-12.789 E47.80956
G1 X-13.174 Y-12.021 E47.85639
G1 X12.021 Y13.174 E50.02865
G1 X11.253 Y13.174 E50.07548
G1 X-13.174 Y-11.253 E52.18152
G1 X-13.174 Y-10.485 E52.22835
G1 X10.485 Y13.174 E54.26817
G1 X9.717 Y13.174 E54.31500
G1 X-13.174 Y-9.717 E56.28860
G1 X-13.174 Y-8.949 E56.33542
G1 X8.949 Y13.174 E58.24280
G1 X8.181 Y13.174 E58.28962
G1 X-13.174 Y-8.181 E60.13078
G1 X-13.174 Y-7.413 E60.17760
G1 X7.413 Y13.174 E61.95254
G1 X6.645 Y13.174 E61.99936
G1 X-13.174 Y-6.645 E63.70807
G1 X-13.174 Y-5.877 E63.75490
G1 X5.877 Y13.174 E65.39738
G1 X5.109 Y13.174 E65.44421
G1 X-13.174 Y-5.109 E67.02048
G1 X-13.174 Y-4.341 E67.06730
G1 X4.341 Y13.174 E68.57734
G1 X3.573 Y13.174 E68.62417
G1 X-13.174 Y-3.573 E70.06799
G1 X-13.174 Y-2.804 E70.11482
G1 X2.804 Y13.174 E71.49241
G1 X2.036 Y13.174 E71.53924
G1 X-13.174 Y-2.036 E72.85061
G1 X-13.174 Y-1.268 E72.89744
G1 X1.268 Y13.174 E74.14259
G1 X0.500 Y13.174 E74.18942
G1 X-13.174 Y-0.500 E75.36835
G1 X-13.174 Y0.268 E75.41518
G1 X-0.268 Y13.174 E76.52788
G1 X-1.036 Y13.174 E76.57471
G1 X-13.174 Y1.036 E77.62119
G1 X-13.174 Y1.804 E77.66802
G1 X-1.804 Y13.174 E78.64828
G1 X-2.572 Y13.174 E78.69511
G1 X-13.174 Y2.572 E79.60915
G1 X-13.174 Y3.340 E79.65598
G1 X-3.340 Y13.174 E80.50379
G1 X-4.108 Y13.174 E80.55062
G1 X-13.174 Y4.108 E81.33221
G1 X-13.174 Y4.876 E81.37904
G1 X-4.876 Y13.174 E82.09441
G1 X-5.644 Y13.174 E82.14124
G1 X-13.174 Y5.644 E82.79039
G1 X-13.174 Y6.412 E82.83722
G1 X-6.412 Y13.174 E83.42015
G1 X-7.181 Y13.174 E83.46697
G1 X-13.174 Y7.181 E83.98368
G1 X-13.174 Y7.949 E84.03050
G1 X-7.949 Y13.174 E84.48099
G1 X-8.717 Y13.174 E84.52781
G1 X-13.174 Y8.717 E84.91207
G1 X-13.174 Y9.485 E84.95890
G1 X-9.485 Y13.174 E85.27694
G1 X-10.253 Y13.174 E85.32377
G1 X-13.174 Y10.253 E85.57558
G1 X-13.174 Y11.021 E85.62241
G1 X-11.021 Y13.174 E85.80800
G1 X-11.789 Y13.174 E85.85483
G1 X-13.174 Y11.789 E85.97420
G1 X-13.174 Y12.557 E86.02102
G1 X-12.316 Y13.415 E86.09495
;
;Layer Change
;
G1 Z0.500 F15000.000
G1 X-13.679 Y13.679 F15000.000
G1 F7200
G1 X-13.679 Y-13.679 E87.38134
G1 X13.679 Y-13.679 E88.66772
G1 X13.679 Y13.679 E89.95410
G1 X-13.619 Y13.679 E91.23767
G1 X-14.307 Y14.307 F15000.000
G1 F7200
G1 X-14.307 Y-14.307 E92.58314
G1 X14.307 Y-14.307 E93.92861
G1 X14.307 Y14.307 E95.27408
G1 X-14.247 Y14.307 E96.61673
G1 X-14.800 Y14.800 F15000.000
G1 F4500
G1 X-14.800 Y-14.800 E97.40770
G1 X14.800 Y-14.800 E98.19868
G1 X14.800 Y14.800 E98.98965
G1 X-14.740 Y14.800 E99.77903
G1 X-14.696 Y14.414 F15000.000
G1 F12000
G1 X-14.800 Y-14.800 E96.26402
G1 F12000
G1 X-4.400 Y-14.800 E95.02903
G1 E94.77903 F1500.00000
G92 E0
G1 X12.145 Y13.428 F15000.000
G1 E5.00000 F1500.00000
G1 F6600
G1 X13.145 Y12.427 E5.06717
G1 X13.145 Y11.530 E5.10978
G1 X11.530 Y13.145 E5.21822
G1 X10.633 Y13.145 E5.26082
G1 X13.145 Y10.633 E5.42951
G1 X13.145 Y9.735 E5.47211
G1 X9.735 Y13.145 E5.70105
G1 X8.838 Y13.145 E5.74365
G1 X13.145 Y8.838 E6.03284
G1 X13.145 Y7.941 E6.07544
G1 X7.941 Y13.145 E6.42488
G1 X7.044 Y13.145 E6.46748
G1 X13.145 Y7.044 E6.87717
G1 X13.145 Y6.146 E6.91977
G1 X6.146 Y13.145 E7.38971
G1 X5.249 Y13.145 E7.43231
G1 X13.145 Y5.249 E7.96250
G1 X13.145 Y4.352 E8.00510
G1 X4.352 Y13.145 E8.59554
G1 X3.455 Y13.145 E8.63814
G1 X13.145 Y3.455 E9.28883
G1 X13.145 Y2.557 E9.33143
G1 X2.557 Y13.145 E10.04237
G1 X1.660 Y13.145 E10.08497
G1 X13.145 Y1.660 E10.85615
G1 X13.145 Y0.763 E10.89876
G1 X0.763 Y13.145 E11.73019
G1 X-0.135 Y13.145 E11.77279
G1 X13.145 Y-0.135 E12.66448
G1 X13.145 Y-1.032 E12.70708
G1 X-1.032 Y13.145 E13.65902
G1 X-1.929 Y13.145 E13.70162
G1 X13.145 Y-1.929 E14.71380
G1 X13.145 Y-2.826 E14.75641
G1 X-2.826 Y13.145 E15.82884
G1 X-3.724 Y13.145 E15.87144
G1 X13.145 Y-3.724 E17.00413
G1 X13.145 Y-4.621 E17.04673
G1 X-4.621 Y13.145 E18.23966
G1 X-5.518 Y13.145 E18.28226
G1 X13.145 Y-5.518 E19.53545
G1 X13.145 Y-6.415 E19.57805
G1 X-6.415 Y13.145 E20.89148
G1 X-7.313 Y13.145 E20.93408
G1 X13.145 Y-7.313 E22.30777
G1 X13.145 Y-8.210 E22.35037
G1 X-8.210 Y13.145 E23.78430
G1 X-9.107 Y13.145 E23.82690
G1 X13.145 Y-9.107 E25.32108
G1 X13.145 Y-10.005 E25.36369
G1 X-10.005 Y13.145 E26.91812
G1 X-10.902 Y13.145 E26.96072
G1 X13.145 Y-10.902 E28.57540
G1 X13.145 Y-11.799 E28.61800
G1 X-11.799 Y13.145 E30.29293
G1 X-12.696 Y13.145 E30.33554
G1 X13.145 Y-12.696 E32.07072
G1 X13.145 Y-13.145 E32.09202
G1 X12.696 Y-13.145 E32.11332
G1 X-13.145 Y12.696 E33.84849
G1 X-13.145 Y11.799 E33.89110
G1 X11.799 Y-13.145 E35.56602
G1 X10.902 Y-13.145 E35.60862
G1 X-13.145 Y10.902 E37.22330
G1 X-13.145 Y10.004 E37.26590
G1 X10.004 Y-13.145 E38.82033
G1 X9.107 Y-13.145 E38.86293
G1 X-13.145 Y9.107 E40.35710
G1 X-13.145 Y8.210 E40.39971
G1 X8.210 Y-13.145 E41.83363
G1 X7.313 Y-13.145 E41.87624
G1 X-13.145 Y7.313 E43.24991
G1 X-13.145 Y6.415 E43.29251
G1 X6.415 Y-13.145 E44.60594
G1 X5.518 Y-13.145 E44.64854
G1 X-13.145 Y5.518 E45.90172
G1 X-13.145 Y4.621 E45.94432
G1 X4.621 Y-13.145 E47.13725
G1 X3.724 Y-13.145 E47.17985
G1 X-13.145 Y3.724 E48.31253
G1 X-13.145 Y2.826 E48.35513
G1 X2.826 Y-13.145 E49.42756
G1 X1.929 Y-13.145 E49.47016
G1 X-13.145 Y1.929 E50.48234
G1 X-13.145 Y1.032 E50.52495
G1 X1.032 Y-13.145 E51.47687
G1 X0.134 Y-13.145 E51.51948
G1 X-13.145 Y0.134 E52.41116
G1 X-13.145 Y-0.763 E52.45376
G1 X-0.763 Y-13.145 E53.28519
G1 X-1.660 Y-13.145 E53.32779
G1 X-13.145 Y-1.660 E54.09897
G1 X-13.145 Y-2.557 E54.14157
G1 X-2.557 Y-13.145 E54.85250
G1 X-3.455 Y-13.145 E54.89510
G1 X-13.145 Y-3.455 E55.54579
G1 X-13.145 Y-4.352 E55.58839
G1 X-4.352 Y-13.145 E56.17882
G1 X-5.249 Y-13.145 E56.22142
G1 X-13.145 Y-5.249 E56.75160
G1 X-13.145 Y-6.146 E56.79421
G1 X-6.146 Y-13.145 E57.26414
G1 X-7.044 Y-13.145 E57.30674
G1 X-13.145 Y-7.044 E57.71642
G1 X-13.145 Y-7.941 E57.75902
G1 X-7.941 Y-13.145 E58.10846
G1 X-8.838 Y-13.145 E58.15106
G1 X-13.145 Y-8.838 E58.44024
G1 X-13.145 Y-9.736 E58.48284
G1 X-9.736 Y-13.145 E58.71178
G1 X-10.633 Y-13.145 E58.75438
G1 X-13.145 Y-10.633 E58.92306
G1 X-13.145 Y-11.530 E58.96566
G1 X-11.530 Y-13.145 E59.07410
G1 X-12.427 Y-13.145 E59.11670
G1 X-13.428 Y-12.145 E59.18387
;
;Layer Change
;
G1 Z0.700 F15000.000
G1 X-13.679 Y-13.679 F15000.000
G1 F7200
G1 X13.679 Y-13.679 E60.47025
G1 X13.679 Y13.679 E61.75664
G1 X-13.679 Y13.679 E63.04302
G1 X-13.679 Y-13.619 E64.32658
G1 X-14.307 Y-14.307 F15000.000
G1 F7200
G1 X14.307 Y-14.307 E65.67205
G1 X14.307 Y14.307 E67.01752
G1 X-14.307 Y14.307 E68.36299
G1 X-14.307 Y-14.247 E69.70564
G1 X-14.800 Y-14.800 F15000.000
G1 F4500
G1 X14.800 Y-14.800 E70.49662
G1 X14.800 Y14.800 E71.28759
G1 X-14.800 Y14.800 E72.07857
G1 X-14.800 Y-14.740 E72.86794
G1 X-14.414 Y-14.696 F15000.000
G1 F12000
G1 X14.800 Y-14.800 E69.35293
G1 F12000
G1 X14.800 Y-4.400 E68.11794
G1 E67.86794 F1500.00000
G92 E0
G1 X-12.145 Y13.428 F15000.000
G1 E5.00000 F1500.00000
G1 F6600
G1 X-13.145 Y12.427 E5.06717
G1 X-13.145 Y11.530 E5.10977
G1 X-11.530 Y13.145 E5.21821
G1 X-10.633 Y13.145 E5.26081
G1 X-13.145 Y10.633 E5.42949
G1 X-13.145 Y9.736 E5.47209
G1 X-9.736 Y13.145 E5.70103
G1 X-8.838 Y13.145 E5.74363
G1 X-13.145 Y8.838 E6.03281
G1 X-13.145 Y7.941 E6.07541
G1 X-7.941 Y13.145 E6.42485
G1 X-7.044 Y13.145 E6.46745
G1 X-13.145 Y7.044 E6.87713
G1 X-13.145 Y6.146 E6.91973
G1 X-6.146 Y13.145 E7.38966
G1 X-5.249 Y13.145 E7.43227
G1 X-13.145 Y5.249 E7.96245
G1 X-13.145 Y4.352 E8.00505
G1 X-4.352 Y13.145 E8.59548
G1 X-3.455 Y13.145 E8.63808
G1 X-13.145 Y3.455 E9.28876
G1 X-13.145 Y2.557 E9.33137
G1 X-2.557 Y13.145 E10.04230
G1 X-1.660 Y13.145 E10.08490
G1 X-13.145 Y1.660 E10.85608
G1 X-13.145 Y0.763 E10.89868
G1 X-0.763 Y13.145 E11.73011
G1 X0.134 Y13.145 E11.77271
G1 X-13.145 Y-0.134 E12.66439
G1 X-13.145 Y-1.032 E12.70700
G1 X1.032 Y13.145 E13.65892
G1 X1.929 Y13.145 E13.70153
G1 X-13.145 Y-1.929 E14.71371
G1 X-13.145 Y-2.826 E14.75631
G1 X2.826 Y13.145 E15.82874
G1 X3.724 Y13.145 E15.87134
G1 X-13.145 Y-3.724 E17.00402
G1 X-13.145 Y-4.621 E17.04662
G1 X4.621 Y13.145 E18.23955
G1 X5.518 Y13.145 E18.28215
G1 X-13.145 Y-5.518 E19.53533
G1 X-13.145 Y-6.415 E19.57793
G1 X6.415 Y13.145 E20.89136
G1 X7.313 Y13.145 E20.93396
G1 X-13.145 Y-7.313 E22.30763
G1 X-13.145 Y-8.210 E22.35024
G1 X8.210 Y13.145 E23.78416
G1 X9.107 Y13.145 E23.82677
G1 X-13.145 Y-9.107 E25.32094
G1 X-13.145 Y-10.004 E25.36354
G1 X10.004 Y13.145 E26.91797
G1 X10.902 Y13.145 E26.96057
G1 X-13.145 Y-10.902 E28.57525
G1 X-13.145 Y-11.799 E28.61785
G1 X11.799 Y13.145 E30.29277
G1 X12.696 Y13.145 E30.33538
G1 X-13.145 Y-12.696 E32.07055
G1 X-13.145 Y-13.145 E32.09185
G1 X-12.696 Y-13.145 E32.11315
G1 X13.145 Y12.696 E33.84833
G1 X13.145 Y11.799 E33.89094
G1 X-11.799 Y-13.145 E35.56587
G1 X-10.902 Y-13.145 E35.60847
G1 X13.145 Y10.902 E37.22315
G1 X13.145 Y10.005 E37.26575
G1 X-10.005 Y-13.145 E38.82018
G1 X-9.107 Y-13.145 E38.86279
G1 X13.145 Y9.107 E40.35697
G1 X13.145 Y8.210 E40.39957
G1 X-8.210 Y-13.145 E41.83350
G1 X-7.313 Y-13.145 E41.87610
G1 X13.145 Y7.313 E43.24979
G1 X13.145 Y6.415 E43.29239
G1 X-6.415 Y-13.145 E44.60582
G1 X-5.518 Y-13.145 E44.64842
G1 X13.145 Y5.518 E45.90161
G1 X13.145 Y4.621 E45.94421
G1 X-4.621 Y-13.145 E47.13714
G1 X-3.724 Y-13.145 E47.17974
G1 X13.145 Y3.724 E48.31243
G1 X13.145 Y2.826 E48.35503
G1 X-2.826 Y-13.145 E49.42746
G1 X-1.929 Y-13.145 E49.47007
G1 X13.145 Y1.929 E50.48225
G1 X13.145 Y1.032 E50.52485
G1 X-1.032 Y-13.145 E51.47679
G1 X-0.135 Y-13.145 E51.51939
G1 X13.145 Y0.135 E52.41108
G1 X13.145 Y-0.763 E52.45368
G1 X0.763 Y-13.145 E53.28511
G1 X1.660 Y-13.145 E53.32772
G1 X13.145 Y-1.660 E54.09890
G1 X13.145 Y-2.557 E54.14150
G1 X2.557 Y-13.145 E54.85244
G1 X3.455 Y-13.145 E54.89504
G1 X13.145 Y-3.455 E55.54573
G1 X13.145 Y-4.352 E55.58833
G1 X4.352 Y-13.145 E56.17877
G1 X5.249 Y-13.145 E56.22137
G1 X13.145 Y-5.249 E56.75156
G1 X13.145 Y-6.146 E56.79416
G1 X6.146 Y-13.145 E57.26410
G1 X7.044 Y-13.145 E57.30670
G1 X13.145 Y-7.044 E57.71639
G1 X13.145 Y-7.941 E57.75899
G1 X7.941 Y-13.145 E58.10843
G1 X8.838 Y-13.145 E58.15103
G1 X13.145 Y-8.838 E58.44022
G1 X13.145 Y-9.735 E58.48282
G1 X9.735 Y-13.145 E58.71176
G1 X10.633 Y-13.145 E58.75436
G1 X13.145 Y-10.633 E58.92305
G1 X13.145 Y-11.530 E58.96565
G1 X11.530 Y-13.145 E59.07409
G1 X12.427 Y-13.145 E59.11670
G1 X13.428 Y-12.145 E59.18387
M106 S249.9
;
;Layer Change
;
G1 Z0.900 F15000.000
G1 X13.679 Y-13.679 F15000.000
G1 F7200
G1 X13.679 Y13.679 E60.47025
G1 X-13.679 Y13.679 E61.75664
G1 X-13.679 Y-13.679 E63.04302
G1 X13.619 Y-13.679 E64.32658
G1 X14.307 Y-14.307 F15000.000
G1 F7200
G1 X14.307 Y14.307 E65.67205
G1 X-14.307 Y14.307 E67.01752
G1 X-14.307 Y-14.307 E68.36299
G1 X14.247 Y-14.307 E69.70564
G1 X14.800 Y-14.800 F15000.000
G1 F4500
G1 X14.800 Y14.800 E70.49662
G1 X-14.800 Y14.800 E71.28759
G1 X-14.800 Y-14.800 E72.07857
G1 X14.740 Y-14.800 E72.86794
G1 X14.696 Y-14.414 F15000.000
G1 F12000
G1 X14.800 Y14.800 E69.35293
G1 F12000
G1 X4.400 Y14.800 E68.11794
G1 E67.86794 F1500.00000
G92 E0
G1 X-13.428 Y-12.145 F15000.000
G1 E5.00000 F1500.00000
G1 F6600
G1 X-12.427 Y-13.145 E5.06717
G1 X-11.530 Y-13.145 E5.10977
G1 X-13.145 Y-11.530 E5.21821
G1 X-13.145 Y-10.633 E5.26081
G1 X-10.633 Y-13.145 E5.42949
G1 X-9.736 Y-13.145 E5.47209
G1 X-13.145 Y-9.736 E5.70103
G1 X-13.145 Y-8.838 E5.74363
G1 X-8.838 Y-13.145 E6.03281
G1 X-7.941 Y-13.145 E6.07541
